static/assets/images/networks/moonbeam-mono.svg

<svg width="276" height="256" viewBox="0 0 276 256" fill="none" xmlns="http://www.w3.org/2000/svg">
<path d="M189.563 247.432C192.889 247.432 195.74 249.336 195.74 251.716C195.74 254.096 192.889 256 189.563 256H99.2951C95.9694 256 93.1188 254.096 93.1188 251.716C93.1188 249.336 95.9694 247.432 99.2951 247.432H189.563Z" fill="black"/>
<path d="M79.8162 256C83.2272 256 85.9924 253.23 85.9924 249.812C85.9924 246.395 83.2272 243.624 79.8162 243.624C76.4051 243.624 73.6399 246.395 73.6399 249.812C73.6399 253.23 76.4051 256 79.8162 256Z" fill="black"/>
<path d="M133.977 233.153C137.388 233.153 140.153 230.382 140.153 226.965C140.153 223.548 137.388 220.777 133.977 220.777C130.566 220.777 127.801 223.548 127.801 226.965C127.801 230.382 130.566 233.153 133.977 233.153Z" fill="black"/>
<path d="M239.924 220.777C243.249 220.777 246.1 223.633 246.1 226.965C246.1 230.297 243.249 233.153 239.924 233.153H151.556C148.23 233.153 145.379 230.297 145.379 226.965C145.379 223.633 148.23 220.777 151.556 220.777H239.924Z" fill="black"/>
<path d="M18.0537 210.306C21.4647 210.306 24.2299 207.535 24.2299 204.118C24.2299 200.7 21.4647 197.93 18.0537 197.93C14.6426 197.93 11.8774 200.7 11.8774 204.118C11.8774 207.535 14.6426 210.306 18.0537 210.306Z" fill="black"/>
<path d="M105.946 197.93C109.272 197.93 112.123 200.786 112.123 204.118C112.123 207.45 109.272 210.306 105.946 210.306H33.2567C29.9311 210.306 27.0805 207.45 27.0805 204.118C27.0805 200.786 29.9311 197.93 33.2567 197.93H105.946Z" fill="black"/>
<path d="M268.904 197.93C272.23 197.93 275.081 200.786 275.081 204.118C275.081 207.45 272.23 210.306 268.904 210.306H124.475C121.15 210.306 118.299 207.45 118.299 204.118C118.299 200.786 121.15 197.93 124.475 197.93H268.904Z" fill="black"/>
<path d="M241.824 175.083C245.15 175.083 248 177.939 248 181.271C248 184.603 245.15 187.459 241.824 187.459H64.6131C61.2874 187.459 58.4369 184.603 58.4369 181.271C58.4369 177.939 61.2874 175.083 64.6131 175.083H241.824Z" fill="black"/>
<path d="M45.1342 187.459C48.5452 187.459 51.3104 184.688 51.3104 181.271C51.3104 177.853 48.5452 175.083 45.1342 175.083C41.7231 175.083 38.9579 177.853 38.9579 181.271C38.9579 184.688 41.7231 187.459 45.1342 187.459Z" fill="black"/>
<path d="M204.766 152.712C208.092 152.712 210.943 155.568 210.943 158.9C210.943 162.231 208.092 165.087 204.766 165.087H27.5556C24.2299 165.087 21.3793 162.231 21.3793 158.9C21.3793 155.568 24.2299 152.712 27.5556 152.712H204.766Z" fill="black"/>
<path d="M6.17627 165.087C9.58732 165.087 12.3525 162.317 12.3525 158.9C12.3525 155.482 9.58732 152.712 6.17627 152.712C2.76522 152.712 0 155.482 0 158.9C0 162.317 2.76522 165.087 6.17627 165.087Z" fill="black"/>
<path d="M45.1342 142.24C48.5452 142.24 51.3104 139.47 51.3104 136.052C51.3104 132.635 48.5452 129.865 45.1342 129.865C41.7231 129.865 38.9579 132.635 38.9579 136.052C38.9579 139.47 41.7231 142.24 45.1342 142.24Z" fill="black"/>
<path d="M258.928 129.865C262.253 129.865 265.104 132.72 265.104 136.052C265.104 139.384 262.253 142.24 258.928 142.24H66.0384C62.7127 142.24 59.8621 139.384 59.8621 136.052C59.8621 132.72 62.7127 129.865 66.0384 129.865H258.928Z" fill="black"/>
<path d="M194.493 8.9252C235.447 26.3153 262.75 69.1695 259.648 112.645C186.426 112.645 113.204 113.266 39.9827 112.024C39.9827 82.8331 49.911 53.0215 71.0088 32.5261C102.035 0.851264 153.538 -9.08596 194.493 8.9252Z" fill="black"/>
</svg>

<svg xmlns="http://www.w3.org/2000/svg" fill="none" viewBox="0 0 276 256"><path fill="#000" d="M189.563 247.432c3.326 0 6.177 1.904 6.177 4.284S192.889 256 189.563 256H99.295c-3.326 0-6.176-1.904-6.176-4.284s2.85-4.284 6.176-4.284zM79.816 256c3.411 0 6.176-2.77 6.176-6.188s-2.765-6.188-6.176-6.188-6.176 2.771-6.176 6.188c0 3.418 2.765 6.188 6.176 6.188M133.977 233.153c3.411 0 6.176-2.771 6.176-6.188s-2.765-6.188-6.176-6.188-6.176 2.771-6.176 6.188 2.765 6.188 6.176 6.188M239.924 220.777c3.325 0 6.176 2.856 6.176 6.188s-2.851 6.188-6.176 6.188h-88.368c-3.326 0-6.177-2.856-6.177-6.188s2.851-6.188 6.177-6.188zM18.054 210.306c3.41 0 6.176-2.771 6.176-6.188 0-3.418-2.765-6.188-6.176-6.188s-6.177 2.77-6.177 6.188 2.766 6.188 6.177 6.188M105.946 197.93c3.326 0 6.177 2.856 6.177 6.188s-2.851 6.188-6.177 6.188h-72.69c-3.325 0-6.175-2.856-6.175-6.188s2.85-6.188 6.176-6.188zM268.904 197.93c3.326 0 6.177 2.856 6.177 6.188s-2.851 6.188-6.177 6.188H124.475c-3.325 0-6.176-2.856-6.176-6.188s2.851-6.188 6.176-6.188zM241.824 175.083c3.326 0 6.176 2.856 6.176 6.188s-2.85 6.188-6.176 6.188H64.614c-3.327 0-6.177-2.856-6.177-6.188s2.85-6.188 6.176-6.188zM45.134 187.459c3.411 0 6.176-2.771 6.176-6.188 0-3.418-2.765-6.188-6.176-6.188s-6.176 2.77-6.176 6.188 2.765 6.188 6.176 6.188M204.766 152.712c3.326 0 6.177 2.856 6.177 6.188s-2.851 6.187-6.177 6.187H27.556c-3.326 0-6.177-2.856-6.177-6.187s2.85-6.188 6.177-6.188zM6.176 165.087a6.18 6.18 0 0 0 6.176-6.187c0-3.418-2.765-6.188-6.176-6.188S0 155.482 0 158.9a6.18 6.18 0 0 0 6.176 6.187M45.134 142.24c3.411 0 6.176-2.77 6.176-6.188a6.18 6.18 0 0 0-6.176-6.187 6.18 6.18 0 0 0-6.176 6.187c0 3.418 2.765 6.188 6.176 6.188M258.928 129.865c3.325 0 6.176 2.855 6.176 6.187s-2.851 6.188-6.176 6.188H66.038c-3.325 0-6.176-2.856-6.176-6.188s2.85-6.187 6.176-6.187zM194.493 8.925c40.954 17.39 68.257 60.244 65.155 103.72-73.222 0-146.444.621-219.665-.621 0-29.19 9.928-59.002 31.026-79.498C102.035.851 153.538-9.086 194.493 8.926"/></svg>
